X:86
T:MacFadden's Reel
R:Reel
M:C
%%printtempo 0
Q:180
K:A
"Bm"vfB (3BBB (fa)ga|fB (3BBB (ef)de|fB (3BBB (ef)fe|"D"dfaf "A"ef"D"df|
"Bm"vfB (3BBB (fa)ga|fB (3BBB (ef)de|fB (3BBB (ef)fe|"D"dfaf "A"edBA||
"Bm"d3e "D"f2 (fe)|d2 (fd) eA (3AAA|"Bm"(dc)de "D"fafe|dfaf "A"edBA|
"Bm"d3e "D"f2 (fe)|d2 (fd) eA (3AAA|"D"(dA) (3AAA (fA)"A"eA|"D"dfaf [1e=gfe:|2 "A7"e4|]
